images/html-badge.svg

<svg width="88" height="97" viewBox="0 0 88 97" fill="none" xmlns="http://www.w3.org/2000/svg">
<path fill-rule="evenodd" clip-rule="evenodd" d="M0 0H88L80.3966 87.5316L44 97L7.92874 87.5316L0 0Z" fill="#D1D2D6"/>
<path fill-rule="evenodd" clip-rule="evenodd" d="M18.4834 18.1582H69.6064V27.8582H29.0714L30.0403 39.9191H68.7707L66.6975 72.5043L44.0592 78.4055L23.0776 72.4689L21.572 58.2489L31.2963 57.2356L32.1118 64.9383L44.1651 68.3487L57.3839 64.9029L58.3563 49.6191H21.0107L18.4834 18.1582Z" fill="#F5F6F7"/>
</svg>

<svg width="88" height="97" fill="none" xmlns="http://www.w3.org/2000/svg"><path fill-rule="evenodd" clip-rule="evenodd" d="M0 0h88l-7.603 87.532L44 97 7.929 87.532 0 0z" fill="#D1D2D6"/><path fill-rule="evenodd" clip-rule="evenodd" d="M18.483 18.158h51.123v9.7H29.071l.97 12.061h38.73l-2.073 32.585-22.639 5.901-20.981-5.936-1.506-14.22 9.724-1.013.816 7.702 12.053 3.41 13.219-3.445.972-15.284H21.011l-2.528-31.46z" fill="#F5F6F7"/></svg>
